preferences/32/preferences-system-network-share-windows.svg

<svg width="32" height="32" version="1.1" viewBox="0 0 32 32" xmlns="http://www.w3.org/2000/svg" xmlns:xlink="http://www.w3.org/1999/xlink">
<defs>
<linearGradient id="linearGradient3403" x1="6.9492" x2="11.215" y1="4.5549" y2="59.052" gradientUnits="userSpaceOnUse">
<stop style="stop-color:#32373c" offset="0"/>
<stop style="stop-color:#1a1a1a" offset=".36805"/>
<stop style="stop-color:#31363b" offset="1"/>
</linearGradient>
<linearGradient id="linearGradient20558" x1="25.802" x2="25.111" y1="20.374" y2="58.913" gradientUnits="userSpaceOnUse">
<stop style="stop-color:#3d3d3d" offset="0"/>
<stop offset=".61772"/>
<stop style="stop-color:#3d3d3d" offset="1"/>
</linearGradient>
<linearGradient id="linearGradient4557" x1="43.5" x2="44.142" y1="64.012" y2=".30621" gradientTransform="translate(.36068 -.13017)" gradientUnits="userSpaceOnUse">
<stop style="stop-color:#141618" offset="0"/>
<stop style="stop-color:#686868" offset=".51821"/>
<stop style="stop-color:#31363b" offset="1"/>
</linearGradient>
<linearGradient id="b" x1="16" x2="16" y1="30" y2="2" gradientUnits="userSpaceOnUse">
<stop stop-color="#2a2c2f" offset="0"/>
<stop stop-color="#424649" offset="1"/>
</linearGradient>
<linearGradient id="c" x1="3" x2="17" y1="3" y2="17" gradientUnits="userSpaceOnUse" xlink:href="#a"/>
<linearGradient id="a">
<stop stop-color="#292c2f" offset="0"/>
<stop stop-opacity="0" offset="1"/>
</linearGradient>
<linearGradient id="d" x1="17" x2="31" y1="3" y2="17" gradientUnits="userSpaceOnUse" xlink:href="#a"/>
<linearGradient id="e" x1="17" x2="31" y1="17" y2="31" gradientUnits="userSpaceOnUse" xlink:href="#a"/>
<linearGradient id="f" x1="3" x2="17" y1="17" y2="31" gradientUnits="userSpaceOnUse" xlink:href="#a"/>
<linearGradient id="g" x1="16" x2="16" y1="28" y2="4" gradientUnits="userSpaceOnUse">
<stop stop-color="#1d99f3" offset="0"/>
<stop stop-color="#3daee9" offset="1"/>
</linearGradient>
<linearGradient id="h" x1="16" x2="26" y1="9" y2="19" gradientUnits="userSpaceOnUse" xlink:href="#a"/>
<linearGradient id="i" x1="9" x2="15" y1="16" y2="22" gradientUnits="userSpaceOnUse" xlink:href="#a"/>
<linearGradient id="j" x1="16" x2="23" y1="23" y2="30" gradientUnits="userSpaceOnUse" xlink:href="#a"/>
<linearGradient id="k" x1="16" x2="16" y1="28" y2="4" gradientUnits="userSpaceOnUse">
<stop stop-color="#eff0f1" offset="0"/>
<stop stop-color="#fcfcfc" offset="1"/>
</linearGradient>
</defs>
<g transform="translate(.12388 -.12062)">
<rect x="2" y="2" width="28" height="28" rx="1" fill="url(#b)" style="fill:url(#b)"/>
<path d="m15 3 2 2v12h-12l-2-2v-12z" fill="url(#c)" opacity=".2" style="fill:url(#c)"/>
<path d="m29 3 1 1v13h-11l-2-2v-12z" fill="url(#d)" opacity=".2" style="fill:url(#d)"/>
<path d="m17 17v12l1 1h10c1.108 0 2-0.892 2-2v-10l-1-1z" fill="url(#e)" opacity=".2" style="fill:url(#e)"/>
<path d="m15 17 2 2v11h-13l-1-1v-12z" fill="url(#f)" opacity=".2" style="fill:url(#f)"/>
<path d="m3 17h12v12h-12zm14 0h12v12h-12zm0-14h12v12h-12zm-14 0h12v12h-12z" fill="url(#g)" style="fill:url(#g)"/>
<path d="m25 9 5 5v8.172l-6.586-6.586-0.414 0.414h-14v-7z" fill="url(#h)" opacity=".2" style="fill:url(#h)"/>
<path d="m8.586 16.414 6.586 6.586h7.828v-7h-14z" fill="url(#i)" opacity=".2" style="fill:url(#i)"/>
<path d="m11 22-1-1-3 2 7 7h16v-7.828l-6.586-6.586-0.414 0.414v7h-11z" fill="url(#j)" opacity=".2" style="fill:url(#j)"/>
<path d="m22 7v1h-12a1.99 1.99 0 0 0-1.566 0.756 1.998 1.998 0 0 0-0.434 1.244v5a2.002 2.002 0 0 0 0.03 0.34 2.001 2.001 0 0 0 0.187 0.566 2 2 0 0 0 1.783 1.094h11a1.003 1.003 0 0 1 0.49 0.13 1.002 1.002 0 0 1 0.194 0.142 0.996 0.996 0 0 1 0.316 0.728v3a1 1 0 0 1-1 1h-11v-1l-3 2 3 2v-1h12a1.99 1.99 0 0 0 1.436-0.607 2.002 2.002 0 0 0 0.492-0.858 2.001 2.001 0 0 0 0.072-0.535v-5a2.002 2.002 0 0 0-0.03-0.34 2.001 2.001 0 0 0-0.187-0.566 2 2 0 0 0-1.783-1.094h-11a1.003 1.003 0 0 1-0.49-0.13 1.002 1.002 0 0 1-0.194-0.142 0.996 0.996 0 0 1-0.316-0.728v-3a1 1 0 0 1 1-1h11v1l3-2z" fill="url(#k)" style="fill:url(#k)"/>
<path d="m2 28v1c0 0.554 0.446 1 1 1h26c0.554 0 1-0.446 1-1v-1c0 0.554-0.446 1-1 1h-26c-0.554 0-1-0.446-1-1z" fill="#17181b"/>
</g>
<path transform="matrix(.49531 0 0 .49531 .32409 .23228)" d="m4.7043 3.9815-0.012938 56.82h53.904l1.0222-2.8664s-23.875 0.76639-32.844-4.1404c-10.516-5.7529-15.372-49.697-15.372-49.697z" style="fill:url(#linearGradient3403);mix-blend-mode:normal;stroke-linejoin:round;stroke-width:1.1624;stroke:url(#linearGradient20558)"/>
<rect transform="matrix(.46399 0 0 .46305 1.1563 1.2331)" x="1.0324" y=".59551" width="62.567" height="62.867" rx="5.803" ry="6.2447" style="fill:none;stroke-linejoin:round;stroke-miterlimit:7.8;stroke-opacity:.99515;stroke-width:3.7137;stroke:url(#linearGradient4557)"/>
</svg>

<?xml version="1.0" encoding="UTF-8" standalone="no"?>
<!-- Created with Inkscape (http://www.inkscape.org/) -->

<svg
   width="32"
   height="32"
   version="1.1"
   viewBox="0 0 32 32"
   id="svg22"
   sodipodi:docname="preferences-system-network-share-windows.svg"
   inkscape:version="1.1.2 (0a00cf5339, 2022-02-04)"
   xmlns:inkscape="http://www.inkscape.org/namespaces/inkscape"
   xmlns:sodipodi="http://sodipodi.sourceforge.net/DTD/sodipodi-0.dtd"
   xmlns:xlink="http://www.w3.org/1999/xlink"
   xmlns="http://www.w3.org/2000/svg"
   xmlns:svg="http://www.w3.org/2000/svg">
  <sodipodi:namedview
     id="namedview24"
     pagecolor="#ffffff"
     bordercolor="#666666"
     borderopacity="1.0"
     inkscape:showpageshadow="2"
     inkscape:pageopacity="0.0"
     inkscape:pagecheckerboard="0"
     inkscape:deskcolor="#d1d1d1"
     showgrid="false"
     inkscape:zoom="18.116076"
     inkscape:cx="17.525871"
     inkscape:cy="15.235088"
     inkscape:window-width="1920"
     inkscape:window-height="996"
     inkscape:window-x="0"
     inkscape:window-y="0"
     inkscape:window-maximized="1"
     inkscape:current-layer="svg22"
     inkscape:pageshadow="2" />
  <defs
     id="defs12">
    <linearGradient
       id="linearGradient1005-3-3"
       x1="5.2535"
       x2="9.3823996"
       y1="15.383"
       y2="2.9421"
       gradientTransform="matrix(0.99999,0,0,0.99999,1.632,-0.61743)"
       gradientUnits="userSpaceOnUse">
      <stop
         stop-color="#fa8200"
         offset="0"
         id="stop2" />
      <stop
         stop-color="#ff9600"
         offset=".36953"
         id="stop4" />
      <stop
         stop-color="#ffb400"
         offset="1"
         id="stop6" />
    </linearGradient>
    <filter
       id="filter4014"
       x="-0.062499933"
       y="-0.057692993"
       width="1.1249999"
       height="1.115386"
       color-interpolation-filters="sRGB">
      <feGaussianBlur
         stdDeviation="1.093751"
         id="feGaussianBlur9" />
    </filter>
    <linearGradient
       inkscape:collect="always"
       xlink:href="#linearGradient3487"
       id="linearGradient3403"
       gradientUnits="userSpaceOnUse"
       x1="6.9491749"
       y1="4.5549412"
       x2="11.215498"
       y2="59.052471" />
    <linearGradient
       id="linearGradient3487">
      <stop
         style="stop-color:#32373c;stop-opacity:1"
         offset="0"
         id="stop3481" />
      <stop
         id="stop3483"
         offset="0.36804965"
         style="stop-color:#1a1a1a;stop-opacity:1" />
      <stop
         style="stop-color:#31363b;stop-opacity:1"
         offset="1"
         id="stop3485" />
    </linearGradient>
    <linearGradient
       inkscape:collect="always"
       xlink:href="#linearGradient20604"
       id="linearGradient20558"
       gradientUnits="userSpaceOnUse"
       x1="25.802212"
       y1="20.373846"
       x2="25.111048"
       y2="58.912758" />
    <linearGradient
       id="linearGradient20604">
      <stop
         id="stop20598"
         offset="0"
         style="stop-color:#3d3d3d;stop-opacity:1" />
      <stop
         style="stop-color:#000000;stop-opacity:1"
         offset="0.61772454"
         id="stop20600" />
      <stop
         id="stop20602"
         offset="1"
         style="stop-color:#3d3d3d;stop-opacity:1" />
    </linearGradient>
    <filter
       inkscape:collect="always"
       style="color-interpolation-filters:sRGB"
       id="filter20720"
       x="-0.017024755"
       y="-0.016457183"
       width="1.0340491"
       height="1.0329144">
      <feGaussianBlur
         inkscape:collect="always"
         stdDeviation="0.14745661"
         id="feGaussianBlur20722" />
    </filter>
    <linearGradient
       gradientTransform="translate(0.36067797,-0.13016949)"
       xlink:href="#linearGradient4555"
       id="linearGradient4557"
       x1="43.499737"
       y1="64.011795"
       x2="44.141731"
       y2="0.30621234"
       gradientUnits="userSpaceOnUse" />
    <linearGradient
       id="linearGradient4555">
      <stop
         style="stop-color:#141618;stop-opacity:1"
         offset="0"
         id="stop4551" />
      <stop
         id="stop4559"
         offset="0.51820582"
         style="stop-color:#686868;stop-opacity:1" />
      <stop
         style="stop-color:#31363b;stop-opacity:1"
         offset="1"
         id="stop4553" />
    </linearGradient>
    <filter
       style="color-interpolation-filters:sRGB"
       id="filter4601"
       x="-0.030244762"
       width="1.0604895"
       y="-0.030100647"
       height="1.0602013">
      <feGaussianBlur
         stdDeviation="0.014790289"
         id="feGaussianBlur4603" />
    </filter>
    <linearGradient
       id="b"
       gradientUnits="userSpaceOnUse"
       x1="16"
       x2="16"
       y1="30"
       y2="2">
      <stop
         offset="0"
         stop-color="#2a2c2f"
         id="stop7" />
      <stop
         offset="1"
         stop-color="#424649"
         id="stop9" />
    </linearGradient>
    <linearGradient
       id="c"
       gradientUnits="userSpaceOnUse"
       x1="3"
       x2="17"
       xlink:href="#a"
       y1="3"
       y2="17" />
    <linearGradient
       id="a">
      <stop
         offset="0"
         stop-color="#292c2f"
         id="stop2-4" />
      <stop
         offset="1"
         stop-opacity="0"
         id="stop4-3" />
    </linearGradient>
    <linearGradient
       id="d"
       gradientUnits="userSpaceOnUse"
       x1="17"
       x2="31"
       xlink:href="#a"
       y1="3"
       y2="17" />
    <linearGradient
       id="e"
       gradientUnits="userSpaceOnUse"
       x1="17"
       x2="31"
       xlink:href="#a"
       y1="17"
       y2="31" />
    <linearGradient
       id="f"
       gradientUnits="userSpaceOnUse"
       x1="3"
       x2="17"
       xlink:href="#a"
       y1="17"
       y2="31" />
    <linearGradient
       id="g"
       gradientUnits="userSpaceOnUse"
       x1="16"
       x2="16"
       y1="28"
       y2="4">
      <stop
         offset="0"
         stop-color="#1d99f3"
         id="stop12" />
      <stop
         offset="1"
         stop-color="#3daee9"
         id="stop14" />
    </linearGradient>
    <linearGradient
       id="h"
       gradientUnits="userSpaceOnUse"
       x1="16"
       x2="26"
       xlink:href="#a"
       y1="9"
       y2="19" />
    <linearGradient
       id="i"
       gradientUnits="userSpaceOnUse"
       x1="9"
       x2="15"
       xlink:href="#a"
       y1="16"
       y2="22" />
    <linearGradient
       id="j"
       gradientUnits="userSpaceOnUse"
       x1="16"
       x2="23"
       xlink:href="#a"
       y1="23"
       y2="30" />
    <linearGradient
       id="k"
       gradientUnits="userSpaceOnUse"
       x1="16"
       x2="16"
       y1="28"
       y2="4">
      <stop
         offset="0"
         stop-color="#eff0f1"
         id="stop21" />
      <stop
         offset="1"
         stop-color="#fcfcfc"
         id="stop23" />
    </linearGradient>
  </defs>
  <g
     id="g883"
     transform="translate(0.12387643,-0.12061978)">
    <rect
       fill="url(#b)"
       height="28"
       rx="1"
       width="28"
       x="2"
       y="2"
       id="rect29"
       style="fill:url(#b)" />
    <path
       d="m 15,3 2,2 V 17 H 5 L 3,15 V 3 Z"
       fill="url(#c)"
       opacity="0.2"
       id="path31"
       style="fill:url(#c)" />
    <path
       d="m 29,3 1,1 V 17 H 19 L 17,15 V 3 Z"
       fill="url(#d)"
       opacity="0.2"
       id="path33"
       style="fill:url(#d)" />
    <path
       d="m 17,17 v 12 l 1,1 h 10 c 1.108,0 2,-0.892 2,-2 V 18 l -1,-1 z"
       fill="url(#e)"
       opacity="0.2"
       id="path35"
       style="fill:url(#e)" />
    <path
       d="m 15,17 2,2 V 30 H 4 L 3,29 V 17 Z"
       fill="url(#f)"
       opacity="0.2"
       id="path37"
       style="fill:url(#f)" />
    <path
       d="M 3,17 H 15 V 29 H 3 Z m 14,0 H 29 V 29 H 17 Z M 17,3 H 29 V 15 H 17 Z M 3,3 H 15 V 15 H 3 Z"
       fill="url(#g)"
       id="path39"
       style="fill:url(#g)" />
    <path
       d="m 25,9 5,5 v 8.172 L 23.414,15.586 23,16 H 9 V 9 Z"
       fill="url(#h)"
       opacity="0.2"
       id="path41"
       style="fill:url(#h)" />
    <path
       d="M 8.586,16.414 15.172,23 H 23 V 16 H 9 Z"
       fill="url(#i)"
       opacity="0.2"
       id="path43"
       style="fill:url(#i)" />
    <path
       d="m 11,22 -1,-1 -3,2 7,7 H 30 V 22.172 L 23.414,15.586 23,16 v 7 H 12 Z"
       fill="url(#j)"
       opacity="0.2"
       id="path45"
       style="fill:url(#j)" />
    <path
       d="M 22,7 V 8 H 10 A 1.99,1.99 0 0 0 8.434,8.756 1.998,1.998 0 0 0 8,10 v 5 A 2.002,2.002 0 0 0 8.03,15.34 2.001,2.001 0 0 0 8.217,15.906 2,2 0 0 0 10,17 h 11 a 1.003,1.003 0 0 1 0.49,0.13 1.002,1.002 0 0 1 0.194,0.142 A 0.996,0.996 0 0 1 22,18 v 3 a 1,1 0 0 1 -1,1 H 10 v -1 l -3,2 3,2 V 24 H 22 A 1.99,1.99 0 0 0 23.436,23.393 2.002,2.002 0 0 0 23.928,22.535 2.001,2.001 0 0 0 24,22 V 17 A 2.002,2.002 0 0 0 23.97,16.66 2.001,2.001 0 0 0 23.783,16.094 2,2 0 0 0 22,15 H 11 A 1.003,1.003 0 0 1 10.51,14.87 1.002,1.002 0 0 1 10.316,14.728 0.996,0.996 0 0 1 10,14 v -3 a 1,1 0 0 1 1,-1 h 11 v 1 l 3,-2 z"
       fill="url(#k)"
       id="path47"
       style="fill:url(#k)" />
    <path
       d="m 2,28 v 1 c 0,0.554 0.446,1 1,1 h 26 c 0.554,0 1,-0.446 1,-1 v -1 c 0,0.554 -0.446,1 -1,1 H 3 C 2.446,29 2,28.554 2,28 Z"
       fill="#17181b"
       id="path49" />
  </g>
  <path
     style="display:inline;mix-blend-mode:normal;fill:url(#linearGradient3403);fill-opacity:1;stroke:url(#linearGradient20558);stroke-width:1.16242;stroke-linecap:butt;stroke-linejoin:round;stroke-miterlimit:4;stroke-dasharray:none;stroke-opacity:1;filter:url(#filter20720)"
     d="M 4.7043071,3.9814882 4.6913695,60.80196 H 58.59546 l 1.022155,-2.866369 c 0,0 -23.87537,0.766388 -32.844441,-4.140386 C 16.257548,48.042344 11.401114,4.0978197 11.401114,4.0978197 Z"
     id="path1686"
     sodipodi:nodetypes="ccccscc"
     transform="matrix(0.49530655,0,0,0.49530655,0.32409325,0.23228439)"
     inkscape:label="folder" />
  <rect
     style="display:inline;fill:none;fill-opacity:1;stroke:url(#linearGradient4557);stroke-width:3.71366;stroke-linejoin:round;stroke-miterlimit:7.8;stroke-dasharray:none;stroke-opacity:0.995146;filter:url(#filter4601)"
     id="rect4539"
     width="62.567089"
     height="62.866646"
     x="1.0323594"
     y="0.59551275"
     ry="6.2447233"
     rx="5.8029528"
     transform="matrix(0.46399463,0,0,0.4630489,1.1562887,1.2331482)"
     inkscape:label="contour" />
</svg>
